!!!OTL: Genovefa Als Jesus auf den Oelberg ging,
!!!ARE: Europa, Suedosteuropa, Jugoslavija, Batschka
!!!YOR: 5, S. 179
!!    1961 gedruckt in Boppard
!!!SCT: Q1104C
!!!YEM: Copyright 1995, estate of Helmut Schaffrath.
**kern
*ICvox
*Ivox
*M2/2
*k[f#]
*G:
{4d
=1
4g
4a
4b
4cc
=2
4dd
8dd
8cc
2b}
=3
{4.ee
8ee
2ee
=4
2dd
4r}
{4dd
=5
4ee
4dd
4cc
8b
8dd
=6
4cc
4b
4a}
{4g
=7
4f#
4ee
4dd
8a
8b
=8
2cc
4b}
==
!!!AGN: geistlich
!! Melodievergleich zu Q0104A, anderes Lied.
!!!ONB: ESAC (Essen Associative Code) Database: BALLADE
!!!AMT: simple duple
!!!AIN: vox
!!!EED: Helmut Schaffrath
!!!EEV: 1.0
*-
